icons/redhat-dark.svg

<svg width="256" height="256" viewBox="0 0 256 256" fill="none" xmlns="http://www.w3.org/2000/svg">
<g clip-path="url(#clip0_33_883)">
<path d="M196 0H60C26.8629 0 0 26.8629 0 60V196C0 229.137 26.8629 256 60 256H196C229.137 256 256 229.137 256 196V60C256 26.8629 229.137 0 196 0Z" fill="#282828"/>
<g clip-path="url(#clip1_33_883)">
<path d="M156.485 137.52C167.86 137.52 184.332 135.152 184.332 121.579C184.331 120.54 184.24 119.504 184.059 118.481L177.325 88.9664C175.778 82.4986 174.412 79.4924 163.037 73.8445C154.21 69.2897 135.008 61.9109 129.275 61.9109C123.905 61.9109 122.358 68.7431 116.079 68.7431C109.982 68.7431 105.523 63.6417 99.7895 63.6417C94.3293 63.6417 90.7801 67.3766 88.05 75.0287C88.05 75.0287 80.4057 96.6184 79.4047 99.8068C79.2543 100.371 79.1929 100.955 79.2227 101.538C79.1317 109.918 112.166 137.429 156.485 137.52ZM186.061 127.136C187.608 134.605 187.608 135.425 187.608 136.336C187.608 149.09 173.32 156.195 154.483 156.195C111.893 156.195 74.6725 131.235 74.6725 114.747C74.6683 112.46 75.1329 110.196 76.0376 108.097C60.7489 108.825 40.9102 111.558 40.9102 129.049C40.9102 157.744 108.799 193.089 162.491 193.089C203.716 193.089 214.09 174.414 214.09 159.657C214.09 148.088 204.08 134.97 186.061 127.136Z" fill="#EE0000"/>
<path d="M186.061 127.136C187.608 134.606 187.608 135.425 187.608 136.336C187.608 149.09 173.32 156.195 154.483 156.195C111.893 156.195 74.6724 131.235 74.6724 114.747C74.6682 112.46 75.1328 110.196 76.0374 108.097L79.4046 99.8069C79.2542 100.371 79.1928 100.955 79.2226 101.538C79.2226 109.919 112.257 137.429 156.485 137.429C167.86 137.429 184.332 135.061 184.332 121.488C184.331 120.449 184.24 119.413 184.059 118.39L186.061 127.136Z" fill="black"/>
</g>
</g>
<defs>
<clipPath id="clip0_33_883">
<rect width="256" height="256" fill="white"/>
</clipPath>
<clipPath id="clip1_33_883">
<rect width="175" height="133" fill="white" transform="translate(40 61)"/>
</clipPath>
</defs>
</svg>

<svg xmlns="http://www.w3.org/2000/svg" width="256" height="256" fill="none"><g clip-path="url(#clip0_33_883)"><path fill="#282828" d="M196 0H60C26.863 0 0 26.863 0 60v136c0 33.137 26.863 60 60 60h136c33.137 0 60-26.863 60-60V60c0-33.137-26.863-60-60-60"/><g clip-path="url(#clip1_33_883)"><path fill="#E00" d="M156.485 137.52c11.375 0 27.847-2.368 27.847-15.941a18 18 0 0 0-.273-3.098l-6.734-29.515c-1.547-6.467-2.913-9.474-14.288-15.121-8.827-4.555-28.029-11.934-33.762-11.934-5.37 0-6.917 6.832-13.196 6.832-6.097 0-10.556-5.101-16.29-5.101-5.46 0-9.009 3.735-11.739 11.387 0 0-7.644 21.59-8.645 24.778a5.6 5.6 0 0 0-.182 1.731c-.091 8.38 32.943 35.891 77.262 35.982m29.576-10.384c1.547 7.469 1.547 8.289 1.547 9.2 0 12.754-14.288 19.859-33.125 19.859-42.59 0-79.81-24.96-79.81-41.448a16.7 16.7 0 0 1 1.365-6.65c-15.29.728-35.128 3.461-35.128 20.952 0 28.695 67.889 64.04 121.581 64.04 41.225 0 51.599-18.675 51.599-33.432 0-11.569-10.01-24.687-28.029-32.521"/><path fill="#000" d="M186.061 127.136c1.547 7.47 1.547 8.289 1.547 9.2 0 12.754-14.288 19.859-33.125 19.859-42.59 0-79.81-24.96-79.81-41.448a16.7 16.7 0 0 1 1.364-6.65l3.368-8.29a5.6 5.6 0 0 0-.182 1.731c0 8.381 33.034 35.891 77.262 35.891 11.375 0 27.847-2.368 27.847-15.941a18 18 0 0 0-.273-3.098z"/></g></g><defs><clipPath id="clip0_33_883"><path fill="#fff" d="M0 0h256v256H0z"/></clipPath><clipPath id="clip1_33_883"><path fill="#fff" d="M40 61h175v133H40z"/></clipPath></defs></svg>
